packages/core/src/svgs/witch.svg

<svg width="24" height="24" viewBox="0 0 24 24" fill="none" xmlns="http://www.w3.org/2000/svg">
<g clip-path="url(#clip0_31_20734)">
<path d="M0 0H24V24H0V0Z" fill="#F0F3FA"/>
<path fill-rule="evenodd" clip-rule="evenodd" d="M18.5829 6.95123C18.7213 7.00453 18.8473 7.08555 18.9533 7.18932C19.0592 7.29308 19.1429 7.41741 19.199 7.55466C19.2552 7.69191 19.2828 7.83919 19.28 7.98747C19.2772 8.13575 19.2442 8.28189 19.1829 8.41694L15.0257 17.3269C14.9842 17.5019 14.9015 17.6643 14.7845 17.8007C14.6674 17.9372 14.5194 18.0436 14.3529 18.1112C14.071 18.2319 13.7536 18.24 13.4659 18.134C13.1782 18.028 12.942 17.8159 12.8057 17.5412L8.57144 8.41694C8.51015 8.28189 8.4771 8.13575 8.47432 7.98747C8.47153 7.83919 8.49908 7.69191 8.55527 7.55466C8.61145 7.41741 8.69509 7.29308 8.80104 7.18932C8.907 7.08555 9.03304 7.00453 9.17144 6.95123C9.32572 6.88694 9.4843 6.85694 9.63858 6.85694H14.2714C14.9143 6.85694 15.4286 7.33694 15.4286 7.92837C15.4286 8.5198 14.9143 8.9998 14.2714 8.9998H11.4129L13.8814 14.3227L17.0357 7.52123C17.1719 7.24759 17.4074 7.03625 17.6941 6.93032C17.9809 6.82439 18.2972 6.83187 18.5786 6.95123H18.5829ZM10.7272 7.52123C10.6843 7.43551 10.6372 7.35837 10.5772 7.28551H14.2714C14.6572 7.28551 15 7.57266 15 7.92837C15 8.28408 14.6572 8.57123 14.2714 8.57123H11.2114L10.7272 7.52123ZM14.1386 14.8798L17.4643 7.70123C17.5459 7.53585 17.6879 7.40809 17.8609 7.34429C18.0339 7.2805 18.2249 7.28554 18.3943 7.35837C18.75 7.50837 18.9086 7.90266 18.7543 8.23694L14.8972 16.5084L14.1386 14.8798ZM9.36858 7.35837C9.7243 7.20837 10.14 7.36266 10.2943 7.70123L14.5243 16.8255C14.6829 17.1641 14.5243 17.5541 14.1643 17.7041C13.8086 17.8541 13.3929 17.6998 13.2343 17.3612L9.0043 8.23694C8.85001 7.90266 9.00858 7.50837 9.36858 7.35837ZM4.81287 8.6398C4.75168 8.50448 4.71883 8.35808 4.71634 8.2096C4.71385 8.06111 4.74176 7.91369 4.79836 7.77639C4.85497 7.6391 4.93906 7.51484 5.04548 7.41126C5.1519 7.30767 5.27838 7.22696 5.41715 7.17408C5.69904 7.05345 6.01641 7.0453 6.30412 7.1513C6.59183 7.25729 6.82805 7.4694 6.9643 7.74408L11.1943 16.8684C11.2556 17.0034 11.2886 17.1496 11.2914 17.2978C11.2942 17.4461 11.2667 17.5934 11.2105 17.7307C11.1543 17.8679 11.0706 17.9922 10.9647 18.096C10.8587 18.1998 10.7327 18.2808 10.5943 18.3341C10.3119 18.456 9.99351 18.4648 9.7048 18.3588C9.4161 18.2527 9.17915 18.0398 9.04287 17.7641L4.81287 8.63551V8.6398ZM5.60572 7.58123C5.96144 7.43123 6.37715 7.58551 6.53572 7.92408L10.7657 17.0484C10.92 17.3827 10.7614 17.7769 10.4014 17.9269C10.0457 18.0769 9.63001 17.9227 9.47573 17.5841L5.24572 8.4598C5.08715 8.12123 5.24572 7.73123 5.60572 7.58123Z" fill="url(#paint0_linear_31_20734)"/>
</g>
<defs>
<linearGradient id="paint0_linear_31_20734" x1="5.18572" y1="8.63551" x2="18.5786" y2="8.63551" gradientUnits="userSpaceOnUse">
<stop stop-color="#72F6FD"/>
<stop offset="0.53" stop-color="#1B67FF"/>
<stop offset="1" stop-color="#8B3BEF"/>
</linearGradient>
<clipPath id="clip0_31_20734">
<rect width="24" height="24" fill="white"/>
</clipPath>
</defs>
</svg>

<svg xmlns="http://www.w3.org/2000/svg" width="24" height="24" fill="none" viewBox="0 0 24 24"><g clip-path="url(#a)"><path fill="#F0F3FA" d="M0 0h24v24H0z"/><path fill="url(#b)" fill-rule="evenodd" d="M18.583 6.951a1.09 1.09 0 0 1 .6 1.466l-4.157 8.91a1.13 1.13 0 0 1-.673.784 1.2 1.2 0 0 1-1.547-.57L8.57 8.417a1.09 1.09 0 0 1 .6-1.466q.234-.095.468-.094h4.632c.643 0 1.158.48 1.158 1.071C15.429 8.52 14.914 9 14.27 9h-2.858l2.468 5.323 3.155-6.802a1.2 1.2 0 0 1 1.543-.57zm-7.856.57a1.2 1.2 0 0 0-.15-.235h3.694c.386 0 .729.287.729.642s-.343.643-.729.643h-3.06zm3.412 7.359L17.464 7.7a.72.72 0 0 1 .93-.343c.356.15.515.545.36.879l-3.857 8.271zm-4.77-7.522c.355-.15.771.005.925.343l4.23 9.125c.159.338 0 .728-.36.878a.72.72 0 0 1-.93-.343l-4.23-9.124c-.154-.334.005-.729.365-.879M4.813 8.64a1.09 1.09 0 0 1 .604-1.466 1.2 1.2 0 0 1 1.547.57l4.23 9.124a1.09 1.09 0 0 1-.6 1.466 1.2 1.2 0 0 1-1.551-.57l-4.23-9.128zm.793-1.059a.72.72 0 0 1 .93.343l4.23 9.124c.154.335-.005.729-.365.879-.355.15-.771-.004-.925-.343L5.246 8.46c-.159-.339 0-.729.36-.879" clip-rule="evenodd"/></g><defs><linearGradient id="b" x1="5.186" x2="18.579" y1="8.636" y2="8.636" gradientUnits="userSpaceOnUse"><stop stop-color="#72F6FD"/><stop offset=".53" stop-color="#1B67FF"/><stop offset="1" stop-color="#8B3BEF"/></linearGradient><clipPath id="a"><path fill="#fff" d="M0 0h24v24H0z"/></clipPath></defs></svg>
